X:48
T:Galway Hornpipe, The
R:hornpipe
Z:id:hn-hornpipe-48
M:C|
L:1/8
K:D
FE | D2FA dAFD | CDEF GEFE | D2FA dcdf | (3efe (3dcB (3ABA (3GFE | 
D2FA dAFD | CDEF G2FG | AdcB AGFE | (3DED CE D2 :| 
|: de | fefg fedc | BABc B2cd | edef edcB | (3ABA ce a2 (3ABc | 
dcde fdAF | GFGA BdcB | AdcB AGFE | (3DED CE D2 :| 
P:variations:
|: (3A,B,C | D2FA dAFD | CDEF G2FE | D2FA dcdf | edcB AGFE | 
D2FA dAFD | CDEF GEFG | AdcB (3ABA (3GFE | (3DFA (3dAF D2 :| 
de | ~f3g fedc | B^ABc B2cd | e^def edcB | (3Ace aec A2 (3ABc | 
dcde fdAF | GFGA BdcB | AdcB (3ABA (3GFE | (3DFA (3dAF D2 
de | ~f3g fedc | B^ABc B2cd | e^def edcB | (3ABA ^GB A2 (3ABc | 
dcde fdAF | GFGA BdcB | AdcB (3ABA (3GFE | (3DFA (3dAF D2 ||
<end>
<start>
